X: 1
T: Sharp Curve Black Ice 
C: David A. Kaynor March 2021
S: https://natunelist.net/sharp-curve-black-ice/ 2021-6-10
M: 4/4
L: 1/8
K: Ador
|:\
"Am"A3B cAcA | "D"A3c dAdA | "Am"A3B cAdA | "Em"eAdA cAB2 |
"Am"A3B cAcA | "D"A3c dAdA | "Am"A3B cAdA | "Em"eAdA "Am"cAA2 :|
|:\
"G"GABd g2ga | "C"gega gecG | "G"GABd g2ga | "Em"gedB "Am"cAA2 |
"G"GABd g2ga | "C"g2ga gecG | "Am"A3B cAdA | "Em"seAdA "Am"cAA2 :|
